common/src/main/resources/icons/general/addFavoritesList.svg

<svg xmlns="http://www.w3.org/2000/svg" width="16" height="16" fill="#29B6F6" data-big="true" viewBox="0 0 24 24"><path d="M17 3a2 2 0 0 1 2 2v16l-7-3-7 3V5a2 2 0 0 1 2-2zm-6 11 6.25-6.24-1.41-1.42L11 11.18 8.41 8.59 7 10z"/></svg>

<!--
  - The MIT License (MIT)
  -
  - Copyright (c) 2015-2024 Elior "Mallowigi" Boukhobza
  -
  - Permission is hereby granted, free of charge, to any person obtaining a copy
  - of this software and associated documentation files (the "Software"), to deal
  - in the Software without restriction, including without limitation the rights
  - to use, copy, modify, merge, publish, distribute, sublicense, and/or sell
  - copies of the Software, and to permit persons to whom the Software is
  - furnished to do so, subject to the following conditions:
  -
  - The above copyright notice and this permission notice shall be included in all
  - copies or substantial portions of the Software.
  -
  - THE SOFTWARE IS PROVIDED "AS IS", WITHOUT WARRANTY OF ANY KIND, EXPRESS OR
  - IMPLIED, INCLUDING BUT NOT LIMITED TO THE WARRANTIES OF MERCHANTABILITY,
  - FITNESS FOR A PARTICULAR PURPOSE AND NONINFRINGEMENT. IN NO EVENT SHALL THE
  - AUTHORS OR COPYRIGHT HOLDERS BE LIABLE FOR ANY CLAIM, DAMAGES OR OTHER
  - LIABILITY, WHETHER IN AN ACTION OF CONTRACT, TORT OR OTHERWISE, ARISING FROM,
  - OUT OF OR IN CONNECTION WITH THE SOFTWARE OR THE USE OR OTHER DEALINGS IN THE
  - SOFTWARE.
  -->


<svg data-big="true" xmlns="http://www.w3.org/2000/svg" version="1.1" width="16px" height="16px" fill="#29B6F6"
     viewBox="0 0 24 24">
  <path
    d="M17,3A2,2 0 0,1 19,5V21L12,18L5,21V5C5,3.89 5.9,3 7,3H17M11,14L17.25,7.76L15.84,6.34L11,11.18L8.41,8.59L7,10L11,14Z"/>
</svg>
